X:96
T:Dineen Dinny Din Dan's
R:slide
Z:id:hn-slide-96
M:6/8
L:1/8
K:G
ABA A2G | F2G A2B | cBc e2d | B3 B2G |
ABA A2G | F2G A2B | cBc e2d |1 G3 G2B :|2 G3 GBd ||
|: gfg a2g | f2A A2B | cBc e2d |1 B3 B2d |
gfg a2g | f2A A2B | cBc e2d | G3 GBd :|
[2 B3 B2G | ABA A2G | F2G A2B | cBc e2d | G3 G2B ||

